X: 1
T: Pretty Girls Of Mayo, The
M: 4/4
L: 1/8
R: reel
K: Gmaj
GFDG ~GABd|ef (3ddd fdcA|G2FG ABde|1 fdcA GBAF:|2 fdcA BGG2||
gage fd (3ddd|fdge fdcA|gage fdde|fdcA BGG2|
gage fd (3ddd|fdge fdcA|defg abag|fdcA G4||
